X:1491
T:My Honey in the House
R:reel
N:"collected from McNamara"
B:"O'Neill's Dance Music of Ireland, 1491"
T: mo .muirnin annsa ti.g.
Z:transcribed by John B. Walsh, 8/22/96
M:C|
L:1/8
K:D
DEFG A2 (AB)|cAdB cAGE|DEFG A2 (AG)|EFGE (FD)D2|
DEFG A2 (AB)|cAdB cAGE|Addc dfed|cAGE FD D2||
d2 (fd) efge|d2 (fd) edcB|AGAB c2 (cB)|EFGE (FD)D2|
d2 fd efge|d2 fd edcB|Addc dfed|cAGE FD D2||


